src/svg/image-outline.svg

<svg version="1.2" baseProfile="tiny" xmlns="http://www.w3.org/2000/svg" width="24" height="24" viewBox="0 0 24 24"><path d="M8.5 7.999c.827 0 1.5.673 1.5 1.5s-.673 1.5-1.5 1.5-1.5-.673-1.5-1.5.673-1.5 1.5-1.5m0-1c-1.381 0-2.5 1.119-2.5 2.5s1.119 2.5 2.5 2.5 2.5-1.119 2.5-2.5-1.119-2.5-2.5-2.5zM16 11.999c.45.051 1.27 1.804 1.779 4.001h-11.392c.434-1.034 1.055-2.001 1.612-2.001.806 0 1.125.185 1.53.42.447.258 1.006.58 1.97.58 1.138 0 1.942-.885 2.653-1.666.627-.687 1.218-1.334 1.848-1.334m0-1c-2 0-3 3-4.5 3s-1.499-1-3.5-1c-2 0-3.001 4-3.001 4h14.001s-1-6-3-6zM22 6c0-1.104-.896-2-2-2h-16c-1.104 0-2 .896-2 2v12c0 1.104.896 2 2 2h16c1.104 0 2-.896 2-2v-12zm-2 12h-16v-12h16.003l-.003 12z"/></svg>

<?xml version="1.0" encoding="iso-8859-1"?>
<!-- Generator: Adobe Illustrator 16.2.1, SVG Export Plug-In . SVG Version: 6.00 Build 0)  -->
<svg version="1.2" baseProfile="tiny" id="Layer_1" xmlns="http://www.w3.org/2000/svg" xmlns:xlink="http://www.w3.org/1999/xlink"
	 x="0px" y="0px" width="24px" height="24px" viewBox="0 0 24 24" xml:space="preserve">
<g>
	<path d="M8.5,7.999c0.827,0,1.5,0.673,1.5,1.5s-0.673,1.5-1.5,1.5S7,10.326,7,9.499S7.673,7.999,8.5,7.999 M8.5,6.999
		c-1.381,0-2.5,1.119-2.5,2.5s1.119,2.5,2.5,2.5s2.5-1.119,2.5-2.5S9.881,6.999,8.5,6.999z"/>
</g>
<g>
	<path d="M16,11.999c0.45,0.051,1.27,1.804,1.779,4.001H6.387c0.434-1.034,1.055-2.001,1.612-2.001c0.806,0,1.125,0.185,1.53,0.42
		c0.447,0.258,1.006,0.58,1.97,0.58c1.138,0,1.942-0.885,2.653-1.666C14.779,12.646,15.37,11.999,16,11.999 M16,10.999
		c-2,0-3,3-4.5,3s-1.499-1-3.5-1c-2,0-3.001,4-3.001,4H19C19,16.999,18,10.999,16,10.999z"/>
</g>
<path d="M22,6c0-1.104-0.896-2-2-2H4C2.896,4,2,4.896,2,6v12c0,1.104,0.896,2,2,2h16c1.104,0,2-0.896,2-2V6z M20,18H4V6h16.003
	L20,18z"/>
</svg>
